Adwaita++/actions/16/configure-toolbars.svg

<svg height="16" viewBox="0 0 16 16" width="16" xmlns="http://www.w3.org/2000/svg">
  <path d="m11.017578 0c-.346.13322-.688562.30432938-.976562.53710938-1.3773004 1.11410002-1.3943629 2.94845622-.039063 4.09765622.283.2401.623797.4184469.966797.5605469.028.0113.027344 2.0546875.027344 2.0546875 1.49.75 2.350047 1.75 2.998047 2.75v-4.7480469c.346-.1333.667078-.3219875.955078-.5546875 1.377-1.1142 1.395062-2.9484562.039062-4.09765622-.283-.24008-.623797-.41848688-.966797-.56054688l-.021484 2.2324219c-.005.4587-.451859.7285156-1.005859.7285156h-.998047c-.554-.007-1.004-.3088781-1-.7675781zm-3.0214842 8c-3.9984001 0-5.9960938 3-5.9960938 6h-1.75c-.2499 0-.25.157-.25.25v1.5c0 .25.13824.25.25.25h15.494141c.195.006.25-.129.25-.25v-1.5c.021-.146 0-.25-.25-.25h-1.75c0-3-1.999147-6-5.9980472-6zm0 3c2.3499002 0 3.0000002 1.762 3.0000002 3h-5.9980471c0-1.198.7017468-3 2.9980469-3z" fill="#474747"/>
</svg>

<svg xmlns="http://www.w3.org/2000/svg" width="16" height="16" viewBox="0 0 16 16">
 <defs>
  <style id="current-color-scheme" type="text/css">
   .ColorScheme-Text { color:#474747; } .ColorScheme-Highlight { color:#4285f4; }
  </style>
 </defs>
 <path style="fill:currentColor" class="ColorScheme-Text" d="M 11.017578 0 C 10.671578 0.13322 10.329016 0.30432938 10.041016 0.53710938 C 8.6637156 1.6512094 8.6466531 3.4855656 10.001953 4.6347656 C 10.284953 4.8748656 10.62575 5.0532125 10.96875 5.1953125 C 10.99675 5.2066125 10.996094 7.25 10.996094 7.25 C 12.486094 8 13.346141 9 13.994141 10 L 13.994141 5.2519531 C 14.340141 5.1186531 14.661219 4.9299656 14.949219 4.6972656 C 16.326219 3.5830656 16.344281 1.7488094 14.988281 0.59960938 C 14.705281 0.35952938 14.364484 0.1811225 14.021484 0.0390625 L 14 2.2714844 C 13.995 2.7301844 13.548141 3 12.994141 3 L 11.996094 3 C 11.442094 2.993 10.992094 2.6911219 10.996094 2.2324219 L 11.017578 0 z M 7.9960938 8 C 3.9976937 8 2 11 2 14 L 0.25 14 C 0.0001 14 0 14.157 0 14.25 L 0 15.75 C 0 16 0.13824 16 0.25 16 L 15.744141 16 C 15.939141 16.006 15.994141 15.871 15.994141 15.75 L 15.994141 14.25 C 16.015141 14.104 15.994141 14 15.744141 14 L 13.994141 14 C 13.994141 11 11.994994 8 7.9960938 8 z M 7.9960938 11 C 10.345994 11 10.996094 12.762 10.996094 14 L 4.9980469 14 C 4.9980469 12.802 5.6997937 11 7.9960938 11 z"/>
</svg>
